X: 1223
T: Bonny Annie.   a Reel.
%R: reel
B: Niel Gow & Sons "Complete Repository" v.1 p.22 #3
Z: 2021 John Chambers <jc:trillian.mit.edu>
M: C|
L: 1/8
K: Am
% - - - - - - - - - -
% Voice 1 formatted for proofreading.
V: 1 staves=2
c |\
A/A/A (TA>G) EGGc | A/A/A (A>B) Tc>ded | (c/B/A/B/) cG EGGc | A/A/A (.e.^g) aAA :| =g | (e/f/g) cg ecgc |
BGdG (Bcd).f | ecgc egca | ~gede cAAg || Ta>gea gced | Tc>AGc EcGc | AcGB cdea | geTd>e cAA |]
% - - - - - - - - - -
% Voice 2 preserves the book's staff layout.
V: 2 clef=bass middle=d
z | a2a2 g2g2 | a2a2 a2a2 | a2a2 g2g2 | a2e2 A2A :| z | c2c2 c2c2 |
G2G2 g2g2 | c2c2 c2f2 | e2E2 A2A2 || f2e2 c2c2 | c2c2 c2e2 | f2e2 c3f | e2E2 A2A |]


